symbols/web/h_mobiledata/materialsymbolsrounded/h_mobiledata_wght600grad200_40px.svg

<svg xmlns="http://www.w3.org/2000/svg" height="40" width="40"><path d="M13 28.542q-.75 0-1.229-.48-.479-.479-.479-1.229V13.167q0-.75.479-1.229.479-.48 1.229-.48.75 0 1.25.48.5.479.5 1.229v5.125h10.5v-5.125q0-.75.5-1.229.5-.48 1.25-.48t1.229.48q.479.479.479 1.229v13.666q0 .75-.479 1.229-.479.48-1.229.48-.75 0-1.25-.48-.5-.479-.5-1.229v-5.125h-10.5v5.125q0 .75-.5 1.229-.5.48-1.25.48Z"/></svg>

<svg xmlns="http://www.w3.org/2000/svg" height="40" width="40"><path d="M13 28.542Q12.25 28.542 11.771 28.062Q11.292 27.583 11.292 26.833V13.167Q11.292 12.417 11.771 11.938Q12.25 11.458 13 11.458Q13.75 11.458 14.25 11.938Q14.75 12.417 14.75 13.167V18.292H25.25V13.167Q25.25 12.417 25.75 11.938Q26.25 11.458 27 11.458Q27.75 11.458 28.229 11.938Q28.708 12.417 28.708 13.167V26.833Q28.708 27.583 28.229 28.062Q27.75 28.542 27 28.542Q26.25 28.542 25.75 28.062Q25.25 27.583 25.25 26.833V21.708H14.75V26.833Q14.75 27.583 14.25 28.062Q13.75 28.542 13 28.542Z"/></svg>
